SVG_Azure_All/Automation Variable.svg

<?xml version="1.0" encoding="UTF-8" standalone="no"?>
<!-- Generated by Microsoft Visio, SVG Export Automation Variable.svg Page-1 -->

<svg
   xmlns:dc="http://purl.org/dc/elements/1.1/"
   xmlns:cc="http://creativecommons.org/ns#"
   xmlns:rdf="http://www.w3.org/1999/02/22-rdf-syntax-ns#"
   xmlns:svg="http://www.w3.org/2000/svg"
   xmlns="http://www.w3.org/2000/svg"
   xmlns:sodipodi="http://sodipodi.sourceforge.net/DTD/sodipodi-0.dtd"
   xmlns:inkscape="http://www.inkscape.org/namespaces/inkscape"
   width="0.78761142in"
   height="0.74806529in"
   viewBox="0 0 56.707891 53.860827"
   xml:space="preserve"
   class="st2"
   version="1.1"
   id="svg19"
   sodipodi:docname="Automation Variable.svg"
   style="font-size:12px;overflow:visible;color-interpolation-filters:sRGB;fill:none;fill-rule:evenodd;stroke-linecap:square;stroke-miterlimit:3"
   inkscape:version="0.92.5 (2060ec1f9f, 2020-04-08)"><metadata
   id="metadata25"><rdf:RDF><cc:Work
       rdf:about=""><dc:format>image/svg+xml</dc:format><dc:type
         rdf:resource="http://purl.org/dc/dcmitype/StillImage" /></cc:Work></rdf:RDF></metadata><defs
   id="defs23" /><sodipodi:namedview
   pagecolor="#ffffff"
   bordercolor="#666666"
   borderopacity="1"
   objecttolerance="10"
   gridtolerance="10"
   guidetolerance="10"
   inkscape:pageopacity="0"
   inkscape:pageshadow="2"
   inkscape:window-width="640"
   inkscape:window-height="480"
   id="namedview21"
   showgrid="false"
   inkscape:zoom="1.2961176"
   inkscape:cx="37.806786"
   inkscape:cy="35.903385"
   inkscape:window-x="0"
   inkscape:window-y="0"
   inkscape:window-maximized="0"
   inkscape:current-layer="svg19" />
	<style
   type="text/css"
   id="style2">
	<![CDATA[
		.st1 {fill:#000000;stroke:none;stroke-linecap:butt;stroke-width:41.3514}
		.st2 {fill:none;fill-rule:evenodd;font-size:12px;overflow:visible;stroke-linecap:square;stroke-miterlimit:3}
	]]>
	</style>

	<g
   id="g17"
   transform="translate(-41.352168,-41.347776)">
		<title
   id="title4">Page-1</title>
		<g
   id="group8942-1"
   transform="translate(41.3643,-41.3514)">
			<title
   id="title6">Automation Variable</title>
			<g
   id="group8943-2">
				<title
   id="title8">Sheet.8943</title>
				<g
   id="shape8944-3">
					<title
   id="title10">Sheet.8944</title>
					<path
   d="m 30.08,100.78 h -6.94 l -4.63,22.32 a 23.5256,23.4668 0 0 1 -1.93,4.61 16.9693,16.9269 0 0 1 -3.08,4.24 10.7987,10.7717 0 0 1 -3.86,3.46 11.9556,11.9258 0 0 1 -5.01,1.15 H 3.09 L 1.54,135.79 0.39,135.02 A 2.314,2.30821 0 0 1 0,133.48 a 5.39933,5.38583 0 0 1 0.77,-2.3 l 1.93,-0.77 h 1.54 l 0.77,0.77 1.16,1.15 0.77,1.15 h 1.93 l 1.16,-1.53 1.15,-2.31 a 5.39933,5.38583 -180 0 0 0.78,-2.31 3.08533,3.07762 -180 0 0 0.77,-1.92 c 0,-0.77 0.38,-1.16 0.38,-1.93 l 5.02,-23.08 h -5.4 l 0.77,-2.31 h 5.01 v -1.92 a 23.5256,23.4668 0 0 1 1.93,-4.62 28.925,28.8526 0 0 1 2.7,-4.61 l 4.63,-3.08 a 10.7987,10.7717 0 0 1 5.01,-1.16 h 1.54 l 1.55,0.77 A 0.771332,0.769404 0 0 1 36.641332,84.239404 2.314,2.30821 0 0 1 37.02,85.78 5.01366,5.00112 0 0 1 36.64,88.09 l -2.32,0.77 h -1.54 l -0.77,-0.77 -1.16,-1.92 -0.77,-1.16 -1.93,0.77 -1.54,1.92 -1.16,2.7 c -0.38,1.15 -0.38,1.92 -0.77,3.08 a 6.55632,6.53993 -180 0 0 -0.38,2.69 c -0.39,0.77 -0.39,1.54 -0.77,1.92 h 6.94 z m 20.06,1.93 -1.93,1.54 -1.54,1.92 -1.55,2.31 -1.15,1.92 0.77,2.31 c 0,0.77 0.38,1.54 0.38,2.69 0,1.16 0.39,1.54 0.77,2.31 0.39,0.77 0.39,1.54 1.16,1.93 a 3.85666,3.84702 -180 0 0 1.54,1.92 h 5.79 v 1.54 l -1.93,0.77 -1.54,0.77 h -5.79 c -0.77,-0.39 -1.15,-0.39 -1.54,-1.16 l -1.16,-1.54 c 0,-0.77 -0.38,-1.15 -0.38,-1.92 a 9.64165,9.61755 0 0 1 -0.77,-2.69 7.32766,7.30934 0 0 1 -0.78,-2.7 l -2.31,3.47 -2.31,3.46 -1.55,1.15 -1.15,1.16 -1.55,0.77 H 29.7 l -1.93,-0.77 C 27,123.48 27,122.71 27,121.94 a 2.314,2.30821 0 0 1 0.38,-1.54 l 0.77,-0.76 1.16,-0.77 h 4.63 l 3.47,-3.47 2.31,-4.23 a 3.08533,3.07762 -180 0 0 -0.38,-1.54 16.5836,16.5422 0 0 1 -0.39,-1.92 c -0.38,-0.77 -0.38,-1.54 -0.77,-2.31 a 5.39933,5.38583 -180 0 0 -0.77,-2.31 l -0.77,-1.54 -0.77,-1.15 h -3.86 l -1.54,0.77 v -1.54 h 1.15 l 1.93,-0.77 1.55,-0.77 h 3.47 c 0.77,0 1.15,0.77 1.54,1.16 l 1.16,1.53 a 5.39933,5.38583 -180 0 0 0.77,2.31 c 0,0.77 0.38,1.54 0.38,2.31 0,0.77 0.39,1.54 0.77,2.31 l 1.16,-1.92 1.54,-2.31 a 8.09899,8.07874 0 0 1 1.55,-2.31 c 0.77,-0.77 1.15,-1.54 1.93,-1.92 l 1.92,-1.54 2.32,-0.77 a 4.24233,4.23172 0 0 1 2.31,0.77 4.24233,4.23172 0 0 1 0.77,2.31 1.54266,1.53881 0 0 1 -0.38,1.15 l -0.77,0.77 -1.16,0.77 z"
   class="st1"
   id="path12"
   inkscape:connector-curvature="0"
   style="fill:#000000;stroke:none;stroke-width:41.35139847;stroke-linecap:butt" />
				</g>
			</g>
		</g>
	</g>
</svg>

<?xml version="1.0" encoding="UTF-8" standalone="no"?>
<!DOCTYPE svg PUBLIC "-//W3C//DTD SVG 1.1//EN" "http://www.w3.org/Graphics/SVG/1.1/DTD/svg11.dtd">
<!-- Generated by Microsoft Visio, SVG Export Automation Variable.svg Page-1 -->
<svg xmlns="http://www.w3.org/2000/svg" xmlns:xlink="http://www.w3.org/1999/xlink" xmlns:ev="http://www.w3.org/2001/xml-events"
		width="1.93631in" height="1.89669in" viewBox="0 0 139.414 136.562" xml:space="preserve" color-interpolation-filters="sRGB"
		class="st2">
	<style type="text/css">
	<![CDATA[
		.st1 {fill:#000000;stroke:none;stroke-linecap:butt;stroke-width:41.3514}
		.st2 {fill:none;fill-rule:evenodd;font-size:12px;overflow:visible;stroke-linecap:square;stroke-miterlimit:3}
	]]>
	</style>

	<g>
		<title>Page-1</title>
		<g id="group8747-1" transform="translate(41.3643,-41.3514)">
			<title>Automation Variable</title>
			<g id="group8748-2">
				<title>Sheet.8748</title>
				<g id="shape8749-3">
					<title>Sheet.8749</title>
					<path d="M30.08 100.78 L23.14 100.78 L18.51 123.1 A23.5256 23.4668 0 0 1 16.58 127.71 A16.9693 16.9269 0 0 1
								 13.5 131.95 A10.7987 10.7717 0 0 1 9.64 135.41 A11.9556 11.9258 0 0 1 4.63 136.56 L3.09 136.56 L1.54
								 135.79 L0.39 135.02 A2.314 2.30821 0 0 1 0 133.48 A5.39933 5.38583 0 0 1 0.77 131.18 L2.7 130.41
								 L4.24 130.41 L5.01 131.18 L6.17 132.33 L6.94 133.48 L8.87 133.48 L10.03 131.95 L11.18 129.64 A5.39933
								 5.38583 -180 0 0 11.96 127.33 A3.08533 3.07762 -180 0 0 12.73 125.41 C12.73 124.64 13.11 124.25
								 13.11 123.48 L18.13 100.4 L12.73 100.4 L13.5 98.09 L18.51 98.09 L18.51 96.17 A23.5256 23.4668 0
								 0 1 20.44 91.55 A28.925 28.8526 0 0 1 23.14 86.94 L27.77 83.86 A10.7987 10.7717 0 0 1 32.78 82.7
								 L34.32 82.7 L35.87 83.47 a0.771332 0.769404 0 0 1 0.771332 0.769404 A2.314 2.30821 0 0 1 37.02 85.78
								 A5.01366 5.00112 0 0 1 36.64 88.09 L34.32 88.86 L32.78 88.86 L32.01 88.09 L30.85 86.17 L30.08 85.01
								 L28.15 85.78 L26.61 87.7 L25.45 90.4 C25.07 91.55 25.07 92.32 24.68 93.48 A6.55632 6.53993 -180
								 0 0 24.3 96.17 C23.91 96.94 23.91 97.71 23.53 98.09 L30.47 98.09 L30.08 100.78 ZM50.14 102.71 L48.21
								 104.25 L46.67 106.17 L45.12 108.48 L43.97 110.4 L44.74 112.71 C44.74 113.48 45.12 114.25 45.12 115.4
								 C45.12 116.56 45.51 116.94 45.89 117.71 C46.28 118.48 46.28 119.25 47.05 119.64 A3.85666 3.84702
								 -180 0 0 48.59 121.56 L54.38 121.56 L54.38 123.1 L52.45 123.87 L50.91 124.64 L45.12 124.64 C44.35
								 124.25 43.97 124.25 43.58 123.48 L42.42 121.94 C42.42 121.17 42.04 120.79 42.04 120.02 A9.64165
								 9.61755 0 0 1 41.27 117.33 A7.32766 7.30934 0 0 1 40.49 114.63 L38.18 118.1 L35.87 121.56 L34.32
								 122.71 L33.17 123.87 L31.62 124.64 L29.7 124.64 L27.77 123.87 C27 123.48 27 122.71 27 121.94 A2.314
								 2.30821 0 0 1 27.38 120.4 L28.15 119.64 L29.31 118.87 L33.94 118.87 L37.41 115.4 L39.72 111.17 A3.08533
								 3.07762 -180 0 0 39.34 109.63 A16.5836 16.5422 0 0 1 38.95 107.71 C38.57 106.94 38.57 106.17 38.18
								 105.4 A5.39933 5.38583 -180 0 0 37.41 103.09 L36.64 101.55 L35.87 100.4 L32.01 100.4 L30.47 101.17
								 L30.47 99.63 L31.62 99.63 L33.55 98.86 L35.1 98.09 L38.57 98.09 C39.34 98.09 39.72 98.86 40.11 99.25
								 L41.27 100.78 A5.39933 5.38583 -180 0 0 42.04 103.09 C42.04 103.86 42.42 104.63 42.42 105.4 C42.42
								 106.17 42.81 106.94 43.19 107.71 L44.35 105.79 L45.89 103.48 A8.09899 8.07874 0 0 1 47.44 101.17
								 C48.21 100.4 48.59 99.63 49.37 99.25 L51.29 97.71 L53.61 96.94 A4.24233 4.23172 0 0 1 55.92 97.71
								 A4.24233 4.23172 0 0 1 56.69 100.02 A1.54266 1.53881 0 0 1 56.31 101.17 L55.54 101.94 L54.38 102.71
								 L50.14 102.71 Z" class="st1"/>
				</g>
			</g>
		</g>
	</g>
</svg>
